X: 30
T: War song
N: Derived from ojibwa30.krn
C: Chippewa Songs ~ 1910
O: Red Wing, Minnesota, U.S.A
N: Chippewa Music by Frances Densmore, 1910
Z: transcribed to **kern format by Paul von Hippel and Daniel T. Shanahan
L: 1/8
M: 3/4
Q: 1/4=108
K: A clef=bass
%%linebreak <none>
E> EE2(3C B, A, | 
[M:2/4]B,> D (3^C =B, =A, | 
[M:3/4]A,> A,A,7/A,/ | 
A,6 | 
E> EE2(3C B, A, | 
[M:2/4]B,> D (3C B, A, | 
[M:3/4]A,> A,A,7/A,/ | 
A,6 | 
B,> B, B,< B, A,3/ =G,/ [I:setbarnb 10]| 
[M:2/4]A,> A, A,/ A,3/ | 
F,> E,E,2 | 
A,> B, A,/ A,3/ | 
F,> E, E,3/ D,/ | 
E,> E,E,2 | 
[M:3/4](3C, B,, A,, (3C, B,, A,, (3C, B,, A,, | 
A,,2A,,3A,, | 
A,,4A,,2 |]  



